packages/katcn/src/icons/svg/arrow5-solid.svg

<svg width="24" height="25" viewBox="0 0 24 25" fill="none" xmlns="http://www.w3.org/2000/svg">
<path d="M4.37616 4.58455L9.04592 11.2512C9.44335 11.8482 9.44335 12.7438 9.04592 13.3408L4.2768 20.0074C3.58131 21.0025 4.2768 22.296 5.46908 22.296H12.0266C12.9208 22.296 13.7157 21.898 14.3118 21.102L19.4784 13.8383C20.1739 12.9428 20.1739 11.6492 19.4784 10.7537L14.3118 3.49002C13.815 2.694 12.9208 2.29599 12.0266 2.29599H5.56844C4.37616 2.29599 3.68066 3.58952 4.37616 4.58455Z" fill="black"/>
</svg>

<svg xmlns="http://www.w3.org/2000/svg" fill="none" viewBox="0 0 24 25"><path fill="#000" d="m4.376 4.585 4.67 6.666c.397.597.397 1.493 0 2.09l-4.77 6.666a1.44 1.44 0 0 0 1.193 2.289h6.558c.894 0 1.689-.398 2.285-1.194l5.166-7.264a2.54 2.54 0 0 0 0-3.084L14.312 3.49c-.497-.796-1.391-1.194-2.285-1.194H5.568a1.44 1.44 0 0 0-1.192 2.289"/></svg>
